modules/themify-icons/icons/layout-menu.svg

<?xml version="1.0" encoding="utf-8"?>
<!-- Generated by IcoMoon.io -->
<!DOCTYPE svg PUBLIC "-//W3C//DTD SVG 1.1//EN" "http://www.w3.org/Graphics/SVG/1.1/DTD/svg11.dtd">
<svg version="1.1" xmlns="http://www.w3.org/2000/svg" xmlns:xlink="http://www.w3.org/1999/xlink" width="17" height="17" viewBox="0 0 17 17">
<g>
</g>
	<path d="M0 7v3h13v-3h-13zM8 8v1h-3v-1h3zM1 8h3v1h-3v-1zM12 9h-3v-1h3v1z" fill="#000000" />
</svg>

<svg xmlns="http://www.w3.org/2000/svg" width="17" height="17" viewBox="0 0 17 17"><path d="M0 7v3h13V7H0zm8 1v1H5V8h3zM1 8h3v1H1V8zm11 1H9V8h3v1z"/></svg>
